X:130
T: Mairoesleins Umzug
N: A0497A
O: Europa, Mitteleuropa, Deutschland
N: Forster II 1540 No. 46.
R: Romanze, Ballade, Lied
M: 3/2
L: 1/4
K: G
G2 | G2G2G2 | d4d2 | c2c2d2 | e6
d2c2d2 | e4d2 | d2c2d2 | =f4ed | d4c2 | d4
e2 | =f4f2 | e4e2 | d4d2 | c4
c2 | d2B2c2 | d3cBA | G2A4 | G2d2B2 | c3BAG | A6 | G4

